front/public/static/landing/logos/gray/wakam.svg

<svg fill="none" height="240" viewBox="0 0 600 240" width="600" xmlns="http://www.w3.org/2000/svg" xmlns:xlink="http://www.w3.org/1999/xlink"><mask id="a" height="76" maskUnits="userSpaceOnUse" width="370" x="115" y="82"><path d="m484.841 82.5h-369.677v75h369.677z" fill="#fff"/></mask><g fill="#364153" mask="url(#a)"><path d="m142.02 157.503c-1.412-.003-2.8-.367-4.032-1.057s-2.267-1.684-3.007-2.886c-.74-1.203-1.16-2.575-1.22-3.986s.242-2.814.876-4.075l18.291-36.306c1.012-1.921 2.736-3.368 4.803-4.029 2.067-.662 4.312-.486 6.25.49 1.939.976 3.417 2.674 4.116 4.728.7 2.055.565 4.302-.376 6.258l-18.295 36.3c-.691 1.372-1.751 2.524-3.059 3.328-1.309.804-2.815 1.228-4.351 1.225z" opacity=".35"/><path d="m439.679 157.499c-1.414-.003-2.801-.367-4.031-1.058-1.234-.69-2.269-1.684-3.008-2.887-.738-1.202-1.158-2.574-1.218-3.985-.06-1.41.24-2.813.877-4.074l18.293-36.301c1.005-1.93 2.73-3.385 4.8-4.053 2.073-.668 4.323-.493 6.266.486 1.942.979 3.42 2.683 4.117 4.745.694 2.061.552 4.313-.401 6.27l-18.296 36.3c-.69 1.371-1.748 2.522-3.053 3.327-1.308.805-2.812 1.23-4.346 1.23z" opacity=".35"/><path d="m178.899 157.497c-1.524-.001-3.018-.422-4.318-1.217s-2.355-1.934-3.049-3.291l-18.586-36.299c-.495-.967-.796-2.022-.884-3.106-.088-1.083.039-2.174.372-3.208.673-2.09 2.149-3.826 4.103-4.827 1.953-1.002 4.225-1.186 6.314-.513 1.035.334 1.994.868 2.822 1.571.828.705 1.51 1.565 2.006 2.532l11.171 21.798 10.963-21.755c.989-1.961 2.717-3.45 4.803-4.138 2.087-.688 4.361-.519 6.323.47 1.961.989 3.45 2.717 4.137 4.803.688 2.087.519 4.361-.47 6.322l-18.295 36.301c-.687 1.365-1.74 2.513-3.04 3.316s-2.797 1.231-4.325 1.235z"/><path d="m142.035 157.493c-1.525.001-3.02-.419-4.321-1.215s-2.358-1.935-3.052-3.293l-18.587-36.292c-1.001-1.954-1.185-4.225-.512-6.314.674-2.09 2.15-3.826 4.104-4.827 1.953-1.001 4.224-1.185 6.314-.512 2.089.674 3.825 2.15 4.826 4.103l18.585 36.301c.645 1.261.955 2.667.902 4.083-.054 1.415-.47 2.793-1.208 4.002s-1.775 2.209-3.009 2.903c-1.235.694-2.625 1.059-4.042 1.061z"/><path d="m402.8 157.499c-1.414-.003-2.801-.368-4.031-1.058-1.234-.69-2.269-1.684-3.008-2.887-.738-1.203-1.158-2.574-1.218-3.985s.24-2.813.877-4.075l18.289-36.3c.686-1.365 1.74-2.513 3.037-3.316 1.302-.804 2.798-1.231 4.328-1.235h.026c1.523 0 3.015.421 4.316 1.217 1.298.795 2.355 1.934 3.049 3.291l18.585 36.3c1.001 1.954 1.185 4.225.51 6.315-.671 2.089-2.149 3.825-4.102 4.826-1.954 1.001-4.227 1.185-6.315.512-2.089-.674-3.825-2.15-4.827-4.103l-11.16-21.802-10.953 21.755c-.69 1.369-1.752 2.518-3.057 3.321-1.308.802-2.812 1.226-4.346 1.224z"/><path d="m476.574 157.493c-1.523.001-3.019-.419-4.32-1.215-1.301-.795-2.355-1.935-3.053-3.292l-18.585-36.301c-.495-.967-.795-2.023-.881-3.106-.09-1.083.038-2.174.371-3.208.334-1.035.867-1.993 1.572-2.822.705-.828 1.563-1.509 2.531-2.005.967-.496 2.021-.796 3.105-.884 1.084-.087 2.175.039 3.21.373 1.035.333 1.991.867 2.82 1.571s1.511 1.564 2.006 2.532l18.585 36.3c.645 1.262.956 2.667.9 4.083-.052 1.416-.469 2.794-1.207 4.003-.739 1.209-1.774 2.208-3.008 2.903-1.234.694-2.629 1.06-4.046 1.062z"/><path d="m324.287 143.043-16.739-13.086 16.553-11.105c1.727-1.158 2.924-2.955 3.327-4.995.402-2.04-.022-4.157-1.18-5.885-1.158-1.727-2.955-2.924-4.995-3.327-2.041-.402-4.158.022-5.885 1.18l-23.003 15.422v-30.542c0-2.1758-.865-4.2626-2.403-5.8013-1.538-1.5386-3.625-2.403-5.801-2.403s-4.263.8644-5.801 2.403c-1.539 1.5387-2.403 3.6255-2.403 5.8013v58.371c0 2.175.864 4.262 2.403 5.8 1.538 1.539 3.625 2.403 5.801 2.403s4.263-.864 5.801-2.403c1.538-1.538 2.403-3.625 2.403-5.8v-11.072l22.264 17.386c.808.663 1.74 1.157 2.742 1.454 1.001.298 2.052.392 3.091.277 1.038-.115 2.043-.436 2.956-.945s1.714-1.195 2.358-2.018 1.117-1.766 1.39-2.774c.274-1.009.343-2.062.205-3.097-.139-1.036-.484-2.033-1.014-2.934-.529-.9-1.232-1.686-2.07-2.31z"/><path d="m263.403 130.924c-.035-5.745-1.953-11.32-5.46-15.871s-8.41-7.827-13.957-9.324c-5.547-1.498-11.432-1.135-16.753 1.033-5.321 2.167-9.784 6.02-12.706 10.967-2.921 4.948-4.14 10.717-3.468 16.423.671 5.706 3.195 11.035 7.185 15.169s9.226 6.845 14.904 7.719c5.679.874 11.488-.139 16.536-2.884.924 1.311 2.242 2.294 3.762 2.805 1.52.512 3.163.526 4.692.04 1.529-.485 2.863-1.445 3.81-2.74.946-1.295 1.456-2.857 1.455-4.461zm-26.262 11.616c-2.269 0-4.487-.672-6.374-1.933-1.886-1.26-3.356-3.052-4.224-5.148s-1.096-4.402-.653-6.627c.442-2.226 1.535-4.27 3.139-5.874 1.605-1.604 3.648-2.697 5.874-3.139 2.225-.443 4.531-.216 6.627.652 2.096.869 3.888 2.339 5.148 4.225 1.261 1.887 1.933 4.105 1.933 6.373 0 3.043-1.208 5.96-3.359 8.112-2.152 2.151-5.069 3.359-8.111 3.359z"/><path d="m387.116 130.924c-.038-5.745-1.954-11.32-5.46-15.871-3.51-4.551-8.412-7.827-13.959-9.324-5.547-1.498-11.432-1.135-16.753 1.033-5.321 2.167-9.784 6.02-12.706 10.967-2.921 4.948-4.14 10.717-3.468 16.423.671 5.706 3.195 11.035 7.185 15.169s9.226 6.845 14.904 7.719c5.679.874 11.488-.139 16.536-2.884.925 1.31 2.242 2.291 3.761 2.802 1.522.51 3.165.524 4.691.039 1.53-.486 2.861-1.444 3.81-2.738.945-1.294 1.455-2.856 1.459-4.459zm-26.264 11.616c-2.269 0-4.487-.672-6.373-1.933-1.887-1.26-3.357-3.052-4.226-5.148-.868-2.096-1.095-4.402-.652-6.627.442-2.226 1.535-4.27 3.139-5.874 1.605-1.604 3.648-2.697 5.874-3.139 2.225-.443 4.531-.216 6.627.652 2.096.869 3.888 2.339 5.148 4.225 1.261 1.887 1.934 4.105 1.934 6.373 0 3.043-1.209 5.96-3.36 8.112-2.151 2.151-5.069 3.359-8.111 3.359z"/></g></svg>

<svg width="600" height="240" viewBox="0 0 600 240" fill="none" xmlns="http://www.w3.org/2000/svg">
<mask id="mask0_1904_3763" style="mask-type:luminance" maskUnits="userSpaceOnUse" x="115" y="82" width="370" height="76">
<path d="M484.841 82.5H115.164V157.5H484.841V82.5Z" fill="white"/>
</mask>
<g mask="url(#mask0_1904_3763)">
<g opacity="0.35">
<path d="M142.02 157.503C140.608 157.5 139.22 157.136 137.988 156.446C136.756 155.756 135.721 154.762 134.981 153.56C134.241 152.357 133.821 150.985 133.761 149.574C133.701 148.163 134.003 146.76 134.637 145.499L152.928 109.193C153.94 107.272 155.664 105.825 157.731 105.164C159.798 104.502 162.043 104.678 163.981 105.654C165.92 106.63 167.398 108.328 168.097 110.382C168.797 112.437 168.662 114.684 167.721 116.64L149.426 152.94C148.735 154.312 147.675 155.464 146.367 156.268C145.058 157.072 143.552 157.496 142.016 157.493L142.02 157.503Z" fill="#364153"/>
</g>
<g opacity="0.35">
<path d="M439.679 157.499C438.265 157.496 436.878 157.132 435.648 156.441C434.414 155.751 433.379 154.757 432.64 153.554C431.902 152.352 431.482 150.98 431.422 149.569C431.362 148.159 431.662 146.756 432.299 145.495L450.592 109.194C451.597 107.264 453.322 105.809 455.392 105.141C457.465 104.473 459.715 104.648 461.658 105.627C463.6 106.606 465.078 108.31 465.775 110.372C466.469 112.433 466.327 114.685 465.374 116.642L447.078 152.942C446.388 154.313 445.33 155.464 444.025 156.269C442.717 157.074 441.213 157.499 439.679 157.499Z" fill="#364153"/>
</g>
<path d="M178.899 157.497C177.375 157.496 175.881 157.075 174.581 156.28C173.281 155.485 172.226 154.346 171.532 152.989L152.946 116.69C152.451 115.723 152.15 114.668 152.062 113.584C151.974 112.501 152.101 111.41 152.434 110.376C153.107 108.286 154.583 106.55 156.537 105.549C158.49 104.547 160.762 104.363 162.851 105.036C163.886 105.37 164.845 105.904 165.673 106.607C166.501 107.312 167.183 108.172 167.679 109.139L178.85 130.937L189.813 109.182C190.802 107.221 192.53 105.732 194.616 105.044C196.703 104.356 198.977 104.525 200.939 105.514C202.9 106.503 204.389 108.231 205.076 110.317C205.764 112.404 205.595 114.678 204.606 116.639L186.311 152.94C185.624 154.305 184.571 155.453 183.271 156.256C181.971 157.059 180.474 157.487 178.946 157.491L178.899 157.497Z" fill="#364153"/>
<path d="M142.035 157.493C140.51 157.494 139.015 157.074 137.714 156.278C136.413 155.482 135.356 154.343 134.662 152.985L116.075 116.693C115.074 114.739 114.89 112.468 115.563 110.379C116.237 108.289 117.713 106.553 119.667 105.552C121.62 104.551 123.891 104.367 125.981 105.04C128.07 105.714 129.806 107.19 130.807 109.143L149.392 145.444C150.037 146.705 150.347 148.111 150.294 149.527C150.24 150.942 149.824 152.32 149.086 153.529C148.348 154.738 147.311 155.738 146.077 156.432C144.842 157.126 143.452 157.491 142.035 157.493Z" fill="#364153"/>
<path d="M402.8 157.499C401.386 157.496 399.999 157.131 398.769 156.441C397.535 155.751 396.5 154.757 395.761 153.554C395.023 152.351 394.603 150.98 394.543 149.569C394.483 148.158 394.783 146.756 395.42 145.494L413.709 109.194C414.395 107.829 415.449 106.681 416.746 105.878C418.048 105.074 419.544 104.647 421.074 104.643H421.1C422.623 104.643 424.115 105.064 425.416 105.86C426.714 106.655 427.771 107.794 428.465 109.151L447.05 145.451C448.051 147.405 448.235 149.676 447.56 151.766C446.889 153.855 445.411 155.591 443.458 156.592C441.504 157.593 439.231 157.777 437.143 157.104C435.054 156.43 433.318 154.954 432.316 153.001L421.156 131.199L410.203 152.954C409.513 154.323 408.451 155.472 407.146 156.275C405.838 157.077 404.334 157.501 402.8 157.499Z" fill="#364153"/>
<path d="M476.574 157.493C475.051 157.494 473.555 157.074 472.254 156.278C470.953 155.483 469.899 154.343 469.201 152.986L450.616 116.685C450.121 115.718 449.821 114.662 449.735 113.579C449.645 112.496 449.773 111.405 450.106 110.371C450.44 109.336 450.973 108.378 451.678 107.549C452.383 106.721 453.241 106.04 454.209 105.544C455.176 105.048 456.23 104.748 457.314 104.66C458.398 104.573 459.489 104.699 460.524 105.033C461.559 105.366 462.515 105.9 463.344 106.604C464.173 107.308 464.855 108.168 465.35 109.136L483.935 145.436C484.58 146.698 484.891 148.103 484.835 149.519C484.783 150.935 484.366 152.313 483.628 153.522C482.889 154.731 481.854 155.73 480.62 156.425C479.386 157.119 477.991 157.485 476.574 157.487V157.493Z" fill="#364153"/>
<path d="M324.287 143.043L307.548 129.957L324.101 118.852C325.828 117.694 327.025 115.897 327.428 113.857C327.83 111.817 327.406 109.7 326.248 107.972C325.09 106.245 323.293 105.048 321.253 104.645C319.212 104.243 317.095 104.667 315.368 105.825L292.365 121.247V90.705C292.365 88.5292 291.5 86.4424 289.962 84.9037C288.424 83.3651 286.337 82.5007 284.161 82.5007C281.985 82.5007 279.898 83.3651 278.36 84.9037C276.821 86.4424 275.957 88.5292 275.957 90.705V149.076C275.957 151.251 276.821 153.338 278.36 154.876C279.898 156.415 281.985 157.279 284.161 157.279C286.337 157.279 288.424 156.415 289.962 154.876C291.5 153.338 292.365 151.251 292.365 149.076V138.004L314.629 155.39C315.437 156.053 316.369 156.547 317.371 156.844C318.372 157.142 319.423 157.236 320.462 157.121C321.5 157.006 322.505 156.685 323.418 156.176C324.331 155.667 325.132 154.981 325.776 154.158C326.42 153.335 326.893 152.392 327.166 151.384C327.44 150.375 327.509 149.322 327.371 148.287C327.232 147.251 326.887 146.254 326.357 145.353C325.828 144.453 325.125 143.667 324.287 143.043Z" fill="#364153"/>
<path d="M263.403 130.924C263.368 125.179 261.45 119.604 257.943 115.053C254.436 110.502 249.533 107.226 243.986 105.729C238.439 104.231 232.554 104.594 227.233 106.762C221.912 108.929 217.449 112.782 214.527 117.729C211.606 122.677 210.387 128.446 211.059 134.152C211.73 139.858 214.254 145.187 218.244 149.321C222.234 153.455 227.47 156.166 233.148 157.04C238.827 157.914 244.636 156.901 249.684 154.156C250.608 155.467 251.926 156.45 253.446 156.961C254.966 157.473 256.609 157.487 258.138 157.001C259.667 156.516 261.001 155.556 261.948 154.261C262.894 152.966 263.404 151.404 263.403 149.8V130.924ZM237.141 142.54C234.872 142.54 232.654 141.868 230.767 140.607C228.881 139.347 227.411 137.555 226.543 135.459C225.675 133.363 225.447 131.057 225.89 128.832C226.332 126.606 227.425 124.562 229.029 122.958C230.634 121.354 232.677 120.261 234.903 119.819C237.128 119.376 239.434 119.603 241.53 120.471C243.626 121.34 245.418 122.81 246.678 124.696C247.939 126.583 248.611 128.801 248.611 131.069C248.611 134.112 247.403 137.029 245.252 139.181C243.1 141.332 240.183 142.54 237.141 142.54Z" fill="#364153"/>
<path d="M387.116 130.924C387.078 125.179 385.162 119.604 381.656 115.053C378.146 110.502 373.244 107.226 367.697 105.729C362.15 104.231 356.265 104.594 350.944 106.762C345.623 108.929 341.16 112.782 338.238 117.729C335.317 122.677 334.098 128.446 334.77 134.152C335.441 139.858 337.965 145.187 341.955 149.321C345.945 153.455 351.181 156.166 356.859 157.04C362.538 157.914 368.347 156.901 373.395 154.156C374.32 155.466 375.637 156.447 377.156 156.958C378.678 157.468 380.321 157.482 381.847 156.997C383.377 156.511 384.708 155.553 385.657 154.259C386.602 152.965 387.112 151.403 387.116 149.8V130.924ZM360.852 142.54C358.583 142.54 356.365 141.868 354.479 140.607C352.592 139.347 351.122 137.555 350.253 135.459C349.385 133.363 349.158 131.057 349.601 128.832C350.043 126.606 351.136 124.562 352.74 122.958C354.345 121.354 356.388 120.261 358.614 119.819C360.839 119.376 363.145 119.603 365.241 120.471C367.337 121.34 369.129 122.81 370.389 124.696C371.65 126.583 372.323 128.801 372.323 131.069C372.323 134.112 371.114 137.029 368.963 139.181C366.812 141.332 363.894 142.54 360.852 142.54Z" fill="#364153"/>
</g>
</svg>
